X: 1
T: Beech Tree, The
M: 4/4
L: 1/8
R: reel
K: Bmin
FABc dFEF|BE~E2 BAGF|EB,~B,2 EDB,A,|B,DDC D2B,D|
FABc dFEF|BE~E2 Bcdf|fedc BAFE|1 FBBA B3A:|2 FBBA B3c||
|:d3B c3A|~B3c BAFE|FBBc dcBA|caa^g a2ba|
fB~B2 gfea|fB~B2 dcBc|dfeg fded|1 BdcA B3c:|2 BdcA B3A||
